!!!COM:	la Rue, Pierre de
!!!CDT:	~1452///-1518/11/20
!!!OTL:	Quis dabit pacem
!!!AGN:	Motet
!!!SCT:	Rue2018
!!!SCA:	Rue2018
!!!voices:	4
**kern	**kern	**kern	**kern
*staff4	*staff3	*staff2	*staff1
*Ivox	*Ivox	*Ivox	*Ivox
*I"Bassus	*I"Tenor	*I"Contra	*I"Discantus
*I'B	*I'T	*I'C	*I'D
*>[A,B]	*>[A,B]	*>[A,B]	*>[A,B]
*>A	*>A	*>A	*>A
*clefF4	*clefGv2	*clefGv2	*clefG2
*k[]	*k[]	*k[]	*k[]
*M2/1	*M2/1	*M2/1	*M2/1
*met(C|)	*met(C|)	*met(C|)	*met(C|)
!!section: Quis dabit pacem
!!!OMD: Quis dabit pacem
=1-	=1-	=1-	=1-
[0E	1r	0r	0r
.	[1B	.	.
=2	=2	=2	=2
0E]	1B]	0r	0r
.	1c	.	.
=3	=3	=3	=3
1F	1A	0r	0r
1D	[1B	.	.
=4	=4	=4	=4
1.E	2B\]	1r	0b
.	2E/	.	.
.	[1E	[1e	.
2AA/	.	.	.
=5	=5	=5	=5
1AA	1E]	1e]	1cc
1r	1r	1f	1a
=6	=6	=6	=6
0r	0r	1d	1.b
.	.	[1e	.
.	.	.	2e/
=7	=7	=7	=7
0r	1r	2e\]	0e
.	.	2A/	.
.	[1c	[1A	.
=8	=8	=8	=8
1r	1c]	1A]	1r
[1E	1c	[1e	[1g
=9	=9	=9	=9
2E\]	0B	2e\]	2g/]
2E\	.	2e\	2g/
1E	.	1e	1g
=10	=10	=10	=10
1.F	1.A	0c	1a
.	.	.	1cc
2E\	2G/	.	.
=11	=11	=11	=11
2D\	2F/	2d\	2b\
2C/	2E/	2e\	1a
1D	1F	1d	.
.	.	.	4g/
.	.	.	4f/
=12	=12	=12	=12
1AA	0E	0c	1a
2r	.	.	1e
2AA/	.	.	.
=13	=13	=13	=13
1C	1r	2r	0r
.	.	2c\	.
1C	1E	[1e	.
=14	=14	=14	=14
0C	1G	1e]	1r
.	1G	1e	1e
=15	=15	=15	=15
[0E	2.G/	0e	1g
.	4A/	.	.
.	2B\	.	1g
.	[2c\	.	.
=16	=16	=16	=16
0E]	2c\]	0e	0g
.	4B\	.	.
.	4A/	.	.
.	1B	.	.
=17	=17	=17	=17
1.F	1A	2.c\	1a
.	.	4B\	.
.	[1A	2A/	[1a
2E\	.	2G/	.
=18	=18	=18	=18
2D\	1A]	2F/	2a/]
2C/	.	2E/	4b\
.	.	.	4cc\
1BB	1G#i	1D	1dd
=19	=19	=19	=19
1AA	0A	1E	1.cc
2r	.	1r	.
2D\	.	.	[2a/
=20	=20	=20	=20
1.F	1r	0r	2a/]
.	.	.	4g/
.	.	.	4f/
.	1A	.	2a/
2E\	.	.	2g/
=21	=21	=21	=21
2D\	0d	0r	2f/
2C/	.	.	2e/
1BB	.	.	1d
=22	=22	=22	=22
[0AA	1.c	1A	0e
.	.	1A	.
.	2B\	.	.
=23	=23	=23	=23
0AA_	2A/	1.c	1r
.	2G/	.	.
.	1F	.	[1cc
.	.	2B\	.
=24	=24	=24	=24
0AA_	1E	2.A/	2cc\]
.	.	.	1a
.	.	4G/	.
.	2r	2F/	.
.	2A/	2E/	4g/
.	.	.	4f/
=25	=25	=25	=25
0AA]	1.c	2.A/	2e/
.	.	.	1a
.	.	4B\	.
.	.	4c\	.
.	.	4d\	.
.	2B\	4e\	2g/
.	.	4d\	.
=26	=26	=26	=26
0r	2A/	4c\	2f/
.	.	4B\	.
.	2G/	1B	2.e/
.	1F	.	.
.	.	.	4d/
.	.	2A/	2d/
=27	=27	=27	=27
0r	[0E	1B	[0e
.	.	2r	.
.	.	2B\	.
=28	=28	=28	=28
1AA	0E]	1c	0e]
1AA	.	1c	.
=29	=29	=29	=29
1BB	0r	1.d	0r
[1D	.	.	.
.	.	4c\	.
.	.	4B\	.
=30	=30	=30	=30
2D\]	0r	2A/	0r
4C/	.	2d\	.
4BB/	.	.	.
2AA/	.	2c\	.
[2D\	.	[2B\	.
=31	=31	=31	=31
4D\]	0r	4B\]	1r
4AA/	.	4A/	.
2C/	.	1A	.
1BB	.	.	1b
.	.	2G#i/	.
=32	=32	=32	=32
0AA	1r	0A	1cc
.	1A	.	1cc
=33	=33	=33	=33
0r	1B	0r	2.dd\
.	.	.	4cc\
.	[1d	.	1b
=34	=34	=34	=34
1D	1d]	0r	1a
[1F	1c	.	2r
.	.	.	2a/
=35	=35	=35	=35
2F\]	0A	1d	0dd
2E\	.	.	.
2D\	.	1d	.
4C/	.	.	.
4BB/	.	.	.
=36	=36	=36	=36
0AA	1r	0e	1.cc
.	[1c	.	.
.	.	.	4b\
.	.	.	4a/
=37	=37	=37	=37
2.C/	1c]	0e	2g/
.	.	.	2.a/
4D\	.	.	.
1E	1B	.	.
.	.	.	4g#i/
.	.	.	2g#i/
=38	=38	=38	=38
2AA/	2.A/	2.c\	2a/
1A	.	.	1e
.	4B\	4d\	.
.	2c\	2e\	.
2D\	2d\	2f\	[2a/
=39	=39	=39	=39
1E	1B	1e	4a/]
.	.	.	4g#i/
.	.	.	2g#i/
2.AA/	[1A	2.c\	2a/
.	.	.	[2e/
4BB/	.	4d\	.
=40	=40	=40	=40
2C/	1A]	2e\	2e/]
2D\	.	1f	1a
2F\	1A	.	.
2C/	.	2e\	2g/
=41	=41	=41	=41
2D\	0A	2d\	2f/
2AA/	.	2c\	2e/
1D	.	2d\	2f/
.	.	2A/	2d/
=42	=42	=42	=42
1.D	1r	1.d	1.f
.	[1A	.	.
2AA/	.	2c\	2e/
=43	=43	=43	=43
0AA	0A_	0c	1e
.	.	.	1r
=44	=44	=44	=44
0AA	1A]	1c	0r
.	1A	2.c\	.
.	.	4d\	.
=45	=45	=45	=45
1C	2.G/	2e\	1r
.	.	1e	.
.	4E/	.	.
1D	1F	.	[1a
.	.	2d\	.
=46	=46	=46	=46
0AA	0E	0e	1a]
.	.	.	1a
=47	=47	=47	=47
0r	1r	1e	2.g/
.	.	.	4e/
.	[1A	2.c\	1f
.	.	4d\	.
=48	=48	=48	=48
1.AA	1A]	1.e	1e
.	1A	.	[1cc
2AA/	.	2A/	.
=49	=49	=49	=49
0AA	2F/	0A	2cc\]
.	2E/	.	2cc\
.	1F	.	[1cc
=50	=50	=50	=50
2.C/	1E	0r	2cc\]
.	.	.	4b\
4D\	.	.	4a/
2E\	1r	.	[1g
2F\	.	.	.
=51	=51	=51	=51
1G	1E	0r	1g]
[1C	[1G	.	2r
.	.	.	2e/
=52	=52	=52	=52
1C]	2G/]	0r	2g/
.	2E/	.	2a/
[1G	2G/	.	2b\
.	2A/	.	2cc\
=53	=53	=53	=53
1G]	1B	0r	1dd
1A	1c	.	[1cc
=54	=54	=54	=54
0G	0d	1r	2cc\]
.	.	.	2b\
.	.	1G	1b
=55	=55	=55	=55
2.C/	1c	2A/	0cc
.	.	2.G/	.
4BB/	.	.	.
1AA	1r	.	.
.	.	4F#i/	.
.	.	2F#i/	.
=56	=56	=56	=56
0GG	0d	0G	1r
.	.	.	1b
=57	=57	=57	=57
1r	0d	1G	1b
1D	.	1F	1a
=58	=58	=58	=58
1GG	1d	1.G	1b
2.C/	[1e	.	2.cc\
.	.	2E/	.
4D\	.	.	4b\
=59	=59	=59	=59
2E\	1e]	0E	4b\
.	.	.	4a/
2.AA/	.	.	1cc
.	[1e	.	.
4BB/	.	.	.
4C/	.	.	4b\
4D\	.	.	4a/
=60	=60	=60	=60
1E	1e]	1r	0g
2.E\	2.e\	2.G/	.
4F\	4d\	4A/	.
=61	=61	=61	=61
2G\	4d\	2B\	0r
.	4c\	.	.
2.C/	1e	1c	.
4D\	.	.	.
4E\	4d\	4B\	.
4F\	4c\	4A/	.
=62	=62	=62	=62
1G	0B	1G	1r
1G	.	1d	1b
=63	=63	=63	=63
2.C/	0e	2.c\	2.cc\
4D\	.	4B\	4b\
2E\	.	2G/	4b\
.	.	.	4a/
[2AA/	.	2A/	[2cc\
=64	=64	=64	=64
4AA/]	1e	1.E	2cc\]
4BB/	.	.	.
4C/	.	.	4b\
4D\	.	.	4a/
2E\	1e	.	2g/
2C/	.	2F/	2a/
=65	=65	=65	=65
0BB	0d	2G/	2b\
.	.	2A/	2cc\
.	.	1B	2dd\
.	.	.	2b\
=66	=66	=66	=66
1AA	0e	1E	1cc
1E	.	1G	[1b
=67	=67	=67	=67
1F	1c	1A	2b\]
.	.	.	2a/
1D	1d	1F	[1a
=68	=68	=68	=68
0E	0B	1E	1a]
.	.	1G	1g#i
=69	=69	=69	=69
[0AAl	[0Al	2F/	[0al
.	.	2E/	.
.	.	1F	.
=70	=70	=70	=70
0AA]	0A]	0El	0a]
!!LO:LB:i:g=z
=71||	=71||	=71||	=71||
!!section: Quam tuas laudes
!!!OMD:	Quam tuas laudes
*>B	*>B	*>B	*>B
*clefF4	*clefGv2	*clefGv2	*clefG2
*k[]	*k[]	*k[]	*k[]
*M2/1	*M2/1	*M2/1	*M2/1
*met(C|)	*met(C|)	*met(C|)	*met(C|)
0r	0r	0r	0e
=72	=72	=72	=72
0r	0r	0r	1.f
.	.	.	4e/
.	.	.	4d/
=73	=73	=73	=73
0r	1A	0r	1e
.	[1B	.	1d
=74	=74	=74	=74
0r	2B\]	0r	2r
.	4A/	.	2.g/
.	4G/	.	.
.	1A	.	.
.	.	.	4f#i/
.	.	.	2f#i/
=75	=75	=75	=75
0r	2.G/	0r	1.g
.	4A/	.	.
.	2B\	.	.
.	[2c\	.	4f/
.	.	.	4e/
=76	=76	=76	=76
0r	4c\]	0r	2d/
.	4B\	.	.
.	2B\	.	1g
.	[1c	.	.
.	.	.	[2e/
=77	=77	=77	=77
0r	1c]	0e	2e/]
.	.	.	1a
.	[1c	.	.
.	.	.	[2g/
=78	=78	=78	=78
0r	1c]	1e	2g/]
.	.	.	2.cc\
.	1d	1f	.
.	.	.	4b\
.	.	.	2b\
=79	=79	=79	=79
0r	0c	1g	2cc\
.	.	.	4b\
.	.	.	4a/
.	.	2e\	2g/
.	.	[2a\	[2cc\
=80	=80	=80	=80
0F	1r	2a\]	2cc\]
.	.	2g\	2b\
.	1c	1f	1a
=81	=81	=81	=81
0C	1c	1e	1.g
.	1c	2r	.
.	.	2e\	[2a/
=82	=82	=82	=82
0D	[0A	2f\	2a/]
.	.	2e\	2g/
.	.	1d	1f
=83	=83	=83	=83
0AA	0A]	0c	1.e
.	.	.	[2f/
=84	=84	=84	=84
0BB	1D	1d	2f/]
.	.	.	2e/
.	1D	1d	1d
=85	=85	=85	=85
0AA	[0A	[0e	0c
=86	=86	=86	=86
0r	0A]	0e]	1r
.	.	.	1cc
=87	=87	=87	=87
0r	0r	1r	2b\
.	.	.	2g/
.	.	1f	1a
=88	=88	=88	=88
0r	0r	2e\	2g/
.	.	2c\	2e/
.	.	1d	1f
=89	=89	=89	=89
0r	0r	2c\	2.e/
.	.	2A/	.
.	.	.	4f/
.	.	1B	4g/
.	.	.	4f/
.	.	.	4e/
.	.	.	4d/
=90	=90	=90	=90
0AA	1r	0A	0c
.	[1A	.	.
=91	=91	=91	=91
1D	1A]	1f	0r
1C	1A	2e\	.
.	.	2c\	.
=92	=92	=92	=92
1F	1A	1d	0r
2E\	2G/	2c\	.
2C/	2E/	2A/	.
=93	=93	=93	=93
1D	1F	1B	0r
2C/	2E/	2A/	.
2AA/	[2E/	[2A/	.
=94	=94	=94	=94
1BB	2E/]	4A/]	0r
.	.	4G#i/	.
.	2D/	2G#i/	.
[1AA	1E	2A/	.
.	.	2B\	.
=95	=95	=95	=95
2AA/]	1A	2c\	1r
2BB/	.	2d\	.
2C/	1G	1e	[1e
2D\	.	.	.
=96	=96	=96	=96
[0E	1.E	1r	2e/]
.	.	.	2f/
.	.	[1e	2g/
.	2F/	.	2a/
=97	=97	=97	=97
0E_	2G/	1e]	1b
.	2A/	.	.
.	1B	1e	1e
=98	=98	=98	=98
0E]	1E	[0e	1r
.	[1G	.	[1b
=99	=99	=99	=99
0r	1G]	0e]	1b]
.	1A	.	1cc
=100	=100	=100	=100
0r	1.B	1d	1dd
.	.	1d	4dd\
.	.	.	4cc\
.	2E/	.	4b\
.	.	.	4a/
=101	=101	=101	=101
0r	[0E	1.e	2g/
.	.	.	2a/
.	.	.	2cc\
.	.	4d\	[2b\
.	.	4c\	.
=102	=102	=102	=102
0r	0E]	4d\	2b\]
.	.	4c\	.
.	.	4B\	2.a/
.	.	4A/	.
.	.	1B	.
.	.	.	4g#i/
.	.	.	2g#i/
=103	=103	=103	=103
0AA	1r	0A	0a
.	1E	.	.
=104	=104	=104	=104
1AA	2F/	0r	0r
.	1E	.	.
1AA	.	.	.
.	[2A/	.	.
=105	=105	=105	=105
1BB	2A/]	0r	0r
.	2G/	.	.
1AA	1c	.	.
=106	=106	=106	=106
0E	2B\	0r	0r
.	1c	.	.
.	4B\	.	.
.	4A/	.	.
=107	=107	=107	=107
1E	2G/	0r	0r
.	2B\	.	.
1F	1A	.	.
=108	=108	=108	=108
2E\	2G/	0r	0r
1F	2c\	.	.
.	2d\	.	.
4E\	[2e\	.	.
4D\	.	.	.
=109	=109	=109	=109
2C/	4e\]	1r	0r
.	4d\	.	.
2E\	1c	.	.
1D	.	1d	.
.	2B\	.	.
=110	=110	=110	=110
0C	0c	1e	1r
.	.	4e\	1g
.	.	4d\	.
.	.	4c\	.
.	.	4B\	.
=111	=111	=111	=111
0r	0r	1A	1a
.	.	1c	4a/
.	.	.	4g/
.	.	.	4f/
.	.	.	4e/
=112	=112	=112	=112
0r	0r	1B	1d
.	.	2A/	1f
.	.	[2d\	.
=113	=113	=113	=113
0r	0r	4d\]	1e
.	.	4B\	.
.	.	4c\	.
.	.	4d\	.
.	.	2B\	2d/
.	.	[2e\	[2g/
=114	=114	=114	=114
0r	1r	4e\]	4g/]
.	.	4c\	4e/
.	.	4d\	4f/
.	.	4e\	4g/
.	2r	1c	2e/
.	[2c\	.	[2a/
=115	=115	=115	=115
0r	4c\]	0r	4a/]
.	4A/	.	4f/
.	4B\	.	4g/
.	4c\	.	4a/
.	2A/	.	2f/
.	2G/	.	[2g/
=116	=116	=116	=116
0r	2A/	0r	4g/]
.	.	.	4f/
.	2E/	.	1e
.	1F	.	.
.	.	.	2d/
=117	=117	=117	=117
1.C	0E	2.c\	0e
.	.	4B\	.
.	.	2G/	.
2C/	.	2A/	.
=118	=118	=118	=118
1BB	1r	4G/	0r
.	.	4F/	.
.	.	2G/	.
1AA	[1E	1A	.
=119	=119	=119	=119
0C	2E/]	0E	1.e
.	2F/	.	.
.	2G/	.	.
.	[2A/	.	2e/
=120	=120	=120	=120
1BB	4A/]	0r	1d
.	4G#i/	.	.
.	2G#i/	.	.
1AA	1A	.	1c
=121	=121	=121	=121
2.E\	1.B	1.e	2.g/
4F\	.	.	4a/
2G\	.	.	2b\
2A\	2A/	2c\	2cc\
=122	=122	=122	=122
2G\	4d\	4g\	2b\
.	4c\	4f\	.
2A\	4B\	4e\	2.a/
.	4A/	4d\	.
1E	1B	1e	.
.	.	.	4g#i/
.	.	.	2g#i/
=123	=123	=123	=123
1AA	[0A	1c	1a
[1D	.	[1d	[1f
=124	=124	=124	=124
1D]	0A]	2d\]	2f/]
.	.	2d\	2f/
1F	.	[1c	1f
=125	=125	=125	=125
1C	1r	2c\]	1e
.	.	4d\	.
.	.	4e\	.
1D	[1A	1f	1d
=126	=126	=126	=126
1AA	2A/]	0e	1c
.	2A/	.	.
1E	1G	.	2r
.	.	.	[2g/
=127	=127	=127	=127
2r	1A	2c\	4g/]
.	.	.	4f/
2D\	.	2f\	2f/
2E\	1G	1e	2g/
2C/	.	.	2e/
=128	=128	=128	=128
1D	2r	1d	2f/
.	2F/	.	2d/
2.C/	2G/	1r	1e
.	[2A/	.	.
4BB/	.	.	.
=129	=129	=129	=129
2BB/	2A/]	0r	2d/
2GG/	1G	.	2B/
1AA	.	.	1c
.	2F#i/	.	.
=130	=130	=130	=130
2GG/	1G	2r	1B
2BB/	.	1G	.
1AA	1c	.	1r
.	.	2F/	.
=131	=131	=131	=131
2GG/	2B\	2G/	1r
2.G\	2G/	2B\	.
.	2.A/	2.c\	1cc
4F\	.	.	.
2F\	.	.	.
.	4G/	4d\	.
=132	=132	=132	=132
1G	1E	1e	2b\
.	.	.	2g/
1r	2r	2.f\	2.a/
.	[2A/	.	.
.	.	4e\	4g/
=133	=133	=133	=133
1r	2A/]	2c\	2e/
.	2A/	2.f\	1.a
1F	[1c	.	.
.	.	4e\	.
.	.	4c\	.
.	.	4d\	.
=134	=134	=134	=134
2E\	1c]	1e	2g/
2C/	.	.	2e/
2.D\	[1A	1d	[1f
4C/	.	.	.
=135	=135	=135	=135
1AA	2A/]	1.c	2f/]
.	2G/	.	2e/
1C	2F/	.	[1e
.	2E/	2B\	.
=136	=136	=136	=136
0D	0F	1.A	2e/]
.	.	.	2d/
.	.	.	1d
.	.	2B\	.
=137	=137	=137	=137
1r	[0El	1c	[0el
1GG	.	[1B	.
=138	=138	=138	=138
0AA	0E_	2B\]	0e_
.	.	2A/	.
.	.	1A	.
=139	=139	=139	=139
0EEl	0E]	0Bl	0e]
==	==	==	==
*-	*-	*-	*-
!!!RDF**kern: l=long note in original notation
!!!RDF**kern: i=editorial accidental
!!!ENC:	Chris Gage 01-07-2013
!!!END:	2013/07/21/
!!!EED:	Jesse Rodin
!!!EEV:	2013/08/05/
!!!ONB:	Translated from MusicXML and edited on 2013/08/05/ by Craig Sapp
!!muse2ps: C^@{COM}^i2I150v85,85,85,150Q16
